material/.icons/material/gender-male.svg

<svg xmlns="http://www.w3.org/2000/svg" viewBox="0 0 24 24"><path d="M9 9c1.29 0 2.5.41 3.47 1.11L17.58 5H13V3h8v8h-2V6.41l-5.11 5.09c.7 1 1.11 2.2 1.11 3.5a6 6 0 01-6 6 6 6 0 01-6-6 6 6 0 016-6m0 2a4 4 0 00-4 4 4 4 0 004 4 4 4 0 004-4 4 4 0 00-4-4z"/></svg>

<?xml version="1.0" encoding="UTF-8"?><!DOCTYPE svg PUBLIC "-//W3C//DTD SVG 1.1//EN" "http://www.w3.org/Graphics/SVG/1.1/DTD/svg11.dtd"><svg xmlns="http://www.w3.org/2000/svg" xmlns:xlink="http://www.w3.org/1999/xlink" version="1.1" id="mdi-gender-male" width="24" height="24" viewBox="0 0 24 24"><path d="M9,9C10.29,9 11.5,9.41 12.47,10.11L17.58,5H13V3H21V11H19V6.41L13.89,11.5C14.59,12.5 15,13.7 15,15A6,6 0 0,1 9,21A6,6 0 0,1 3,15A6,6 0 0,1 9,9M9,11A4,4 0 0,0 5,15A4,4 0 0,0 9,19A4,4 0 0,0 13,15A4,4 0 0,0 9,11Z" /></svg>
